icon-themes/breeze_svg/cmd/sc_grafgamma.svg

<svg viewBox="0 0 16 16" xmlns="http://www.w3.org/2000/svg"><path d="m12.53125 2.8125c-.81836 2.22722-1.76075 4.33851-3.21875 6.03125s-3.41063 2.99086-6.40625 3.65625l.1875 1c3.17899-.70611 5.38327-2.15927 6.96875-4 1.58547-1.84073 2.57313-4.04511 3.40625-6.3125z" fill="#da4453"/><path d="m2 2v12h12v-12zm1 1h10v10h-10z" fill="#4d4d4d"/></svg>

<svg xmlns="http://www.w3.org/2000/svg" viewBox="0 0 16 16">
 <path 
     style="fill:#da4453" 
     d="M 12.53125 2.8125 C 11.71289 5.03972 10.7705 7.15101 9.3125 8.84375 C 7.8545 10.53649 5.90187 11.83461 2.90625 12.5 L 3.09375 13.5 C 6.27274 12.79389 8.47702 11.34073 10.0625 9.5 C 11.64797 7.65927 12.63563 5.45489 13.46875 3.1875 L 12.53125 2.8125 z "
     />
 <path 
     style="fill:#4d4d4d" 
     d="M 2 2 L 2 14 L 14 14 L 14 2 L 2 2 z M 3 3 L 13 3 L 13 13 L 3 13 L 3 3 z "
     />
 </svg>
